X: 20
T: Have a drink with me
C: anon.
O: Ireland
B: Francis O'Neill: "The Dance Music of Ireland" (1907) no. 20
R: Double jig
Z: Transcribed by Frank Nordberg - http://www.musicaviva.com
F: http://www.musicaviva.com/abc/tunes/ireland/oneill-1001/oneill-1001-002
0.abc
m: Mn2 = (3n/o/n/ o/4n/4-n/
M: 6/8
L: 1/8
Q: 3/8=128
K: G
d/c/|BAG EGE|EGD EGD|BAG EGD|EAA ABc|BAG EGD|EGD EGD|BAG EGD|EGG G2:|
D|GBd Me2d|dgd MB2A|GBd Me2d|eaa aga|bag agf|gfe dBG|BAG EGD|EGG G2:|
W:
W:
W: From Musica Viva - http://www.musicaviva.com
W: the Internet center for free sheet music downloads.


